www/assets/icons/insert_comment.svg

<svg xmlns="http://www.w3.org/2000/svg" width="24" height="24" viewBox="0 0 24 24" fill='currentColor'><path d="M20 2H4c-1.1 0-2 .9-2 2v12c0 1.1.9 2 2 2h14l4 4V4c0-1.1-.9-2-2-2m-2 12H6v-2h12zm0-3H6V9h12zm0-3H6V6h12z"/></svg>

<svg width="24" height="24" viewBox="0 0 24 24" xmlns="http://www.w3.org/2000/svg" fill='currentColor'><path d="M20 2H4C2.9 2 2 2.9 2 4V16C2 17.1 2.9 18 4 18H18L22 22V4C22 2.9 21.1 2 20 2ZM18 14H6V12H18V14ZM18 11H6V9H18V11ZM18 8H6V6H18V8Z"/></svg>
